icons/op-openproject-24.svg

<svg width="24" height="24" viewBox="0 0 24 24" fill="none" xmlns="http://www.w3.org/2000/svg">
<path d="M17.124 4H15.3388C13.7521 4 12.4628 5.22353 12.4628 6.72941V11.0588H9.32231C9.22314 11.0588 9.14815 11.0588 9.08203 11.0588C8.9498 11.0588 8.82645 11.0588 8.66116 11.0588H6.87603C5.28926 11.0588 4 12.2824 4 13.7882V17.2706C4 18.7765 5.28926 20 6.87603 20H8.66116C10.2479 20 11.5372 18.7765 11.5372 17.2706V13.7882C11.5372 13.4745 11.4711 13.1922 11.3719 12.9098H12.4628V16.0784C12.4628 16.5804 12.8926 16.9569 13.4215 16.9569C13.9504 16.9569 14.3802 16.5804 14.3802 16.0784L14.3802 12.9412H14.8212C14.9534 12.9412 15.2066 12.9412 15.3388 12.9412H17.124C18.7107 12.9412 20 11.7176 20 10.2118V6.72941C20 5.22353 18.7107 4 17.124 4ZM9.61984 17.2706C9.61984 17.7412 9.19008 18.149 8.66116 18.149H6.87603C6.34711 18.149 5.95041 17.7725 5.95041 17.2706V13.7882C5.95041 13.2863 6.34711 12.9098 6.87603 12.9098H8.66116C9.19008 12.9098 9.61984 13.2863 9.61984 13.7882V17.2706ZM18.0496 10.2118C18.0496 10.7137 17.6529 11.0902 17.124 11.0902H15.3388C15.2727 11.0902 15.2066 11.0902 15.1405 11.0588C14.7107 10.9647 14.3802 10.651 14.3802 10.2118V6.72941C14.3802 6.25882 14.8099 5.85098 15.3388 5.85098H17.124C17.6198 5.85098 18.0496 6.22745 18.0496 6.72941V10.2118Z" fill="black"/>
</svg>

<svg xmlns="http://www.w3.org/2000/svg" width="24" height="24" viewBox="0 0 24 24"><path d="M17.124 4h-1.785c-1.587 0-2.876 1.224-2.876 2.729v4.33H6.876C5.289 11.059 4 12.282 4 13.788v3.483C4 18.776 5.289 20 6.876 20h1.785c1.587 0 2.876-1.224 2.876-2.729v-3.483c0-.313-.066-.596-.165-.878h1.091v3.168c0 .502.43.879.958.879.529 0 .959-.377.959-.879v-3.137h2.744c1.587 0 2.876-1.223 2.876-2.729V6.729C20 5.224 18.711 4 17.124 4ZM9.62 17.271c0 .47-.43.878-.959.878H6.876c-.529 0-.926-.376-.926-.878v-3.483c0-.502.397-.878.926-.878h1.785c.529 0 .959.376.959.878v3.483Zm8.43-7.059c0 .502-.397.878-.926.878h-1.785c-.066 0-.132 0-.199-.031-.429-.094-.76-.408-.76-.847V6.729c0-.47.43-.878.959-.878h1.785c.496 0 .926.376.926.878v3.483Z"/></svg>
